project/images/official/original/473.svg

<?xml version="1.0" encoding="UTF-8" standalone="no"?>
<svg
   width="71pt"
   height="44pt"
   viewBox="0 0 71 44"
   version="1.1"
   id="svg829"
   sodipodi:docname="473.svg"
   inkscape:version="1.1.2 (b8e25be8, 2022-02-05)"
   xmlns:inkscape="http://www.inkscape.org/namespaces/inkscape"
   xmlns:sodipodi="http://sodipodi.sourceforge.net/DTD/sodipodi-0.dtd"
   xmlns="http://www.w3.org/2000/svg"
   xmlns:svg="http://www.w3.org/2000/svg">
  <defs
     id="defs833" />
  <sodipodi:namedview
     id="namedview831"
     pagecolor="#ffffff"
     bordercolor="#666666"
     borderopacity="1.0"
     inkscape:pageshadow="2"
     inkscape:pageopacity="0.0"
     inkscape:pagecheckerboard="0"
     inkscape:document-units="pt"
     showgrid="false"
     inkscape:zoom="9.2897727"
     inkscape:cx="47.363914"
     inkscape:cy="29.333333"
     inkscape:window-width="1844"
     inkscape:window-height="969"
     inkscape:window-x="0"
     inkscape:window-y="25"
     inkscape:window-maximized="0"
     inkscape:current-layer="svg829" />
  <g
     id="surface1">
    <path
       style="fill:#211e1e;fill-opacity:1;fill-rule:nonzero;stroke:none"
       d="M 0.0859375,43.46875 V 0.949219 H 70.953125 V 43.46875 H 0.0859375 M 1.5,42.050781 H 69.535156 V 2.363281 H 1.5 v 39.6875"
       id="path824" />
    <path
       style="fill:#211e1e;fill-opacity:1;fill-rule:nonzero;stroke:none"
       d="m 7.277344,34.230469 h 13.542968 v -3.160157 h -9.3125 l 0.925782,-0.992187 c 1.101562,-1.210937 2.167968,-2.453125 3.160156,-3.734375 0.960938,-1.242188 1.816406,-2.523438 2.5625,-3.765625 0.742188,-1.246094 1.3125,-2.453125 1.738281,-3.660156 0.425781,-1.175781 0.640625,-2.308594 0.640625,-3.375 0,-0.890625 -0.140625,-1.707031 -0.390625,-2.488281 -0.285156,-0.785157 -0.710937,-1.457032 -1.246093,-2.0625 C 18.332031,10.421875 17.621094,9.964844 16.804688,9.605469 15.953125,9.285156 14.953125,9.109375 13.820312,9.109375 12.648438,9.109375 11.542969,9.25 10.582031,9.5 9.589844,9.78125 8.664062,10.140625 7.847656,10.566406 l 0.390625,3.625 c 0.570313,-0.464844 1.28125,-0.921875 2.097657,-1.316406 0.816406,-0.386719 1.742187,-0.605469 2.769531,-0.605469 1.105469,0 1.992187,0.359375 2.597656,1.101563 0.605469,0.75 0.921875,1.671875 0.921875,2.84375 0,0.820312 -0.175781,1.707031 -0.53125,2.664062 -0.390625,0.960938 -0.886719,1.992188 -1.5625,3.023438 -0.679688,1.0625 -1.460938,2.164062 -2.347656,3.339844 -0.921875,1.171874 -1.917969,2.382812 -3.019532,3.625 l -1.886718,2.167968 v 3.195313 m 17.53125,-8.347657 h 6.640625 V 13.269531 h -0.06641 l -6.574218,12.613281 m -2.953125,2.949219 h 9.59375 v 5.398438 h 3.558593 v -5.398438 h 2.730469 V 25.882812 H 35.007812 V 9.429688 h -4.410156 l -8.742187,15.847656 v 3.554687 m 19.726562,5.398438 h 3.835938 v -4.296875 h -3.835938 v 4.296875 m 8.140625,-0.707031 c 0.675782,0.246093 1.457032,0.496093 2.382813,0.675781 0.886719,0.207031 1.882812,0.3125 2.914062,0.3125 2.632813,0 4.652344,-0.777344 6.074219,-2.304688 1.425781,-1.53125 2.132812,-3.625 2.132812,-6.289062 0,-1.246094 -0.175781,-2.3125 -0.53125,-3.269531 -0.390624,-0.925782 -0.890624,-1.703126 -1.492187,-2.347657 -0.605469,-0.636719 -1.351563,-1.136719 -2.167969,-1.457031 -0.851562,-0.316406 -1.742187,-0.460938 -2.667968,-0.460938 -0.566407,0 -1.101563,0.03516 -1.5625,0.07422 -0.496094,0.07031 -0.921876,0.175781 -1.246094,0.28125 V 12.44922 h 8.496094 V 9.429688 H 50.078125 v 12.652343 c 0.605469,-0.179687 1.246094,-0.359375 1.882813,-0.535156 0.640624,-0.179687 1.386718,-0.246094 2.203124,-0.246094 1.707032,0 2.984376,0.460938 3.875,1.347657 0.855469,0.886718 1.277344,2.097656 1.277344,3.554687 0,1.527344 -0.421875,2.769531 -1.3125,3.730469 -0.890625,0.996094 -2.097656,1.492187 -3.625,1.492187 -0.886718,0 -1.703125,-0.144531 -2.453125,-0.390625 C 51.179688,30.785156 50.507812,30.5 49.9375,30.179688 l -0.214844,3.34375"
       id="path826" />
  </g>
  <path
     style="fill:#ffffff;stroke:#ffffff;stroke-width:0;stroke-linecap:butt;stroke-linejoin:miter;stroke-opacity:1;fill-opacity:1;stroke-miterlimit:4;stroke-dasharray:none"
     d="m 31.449222,13.269531 -6.640628,12.613281 h 6.640628 z"
     id="path948" />
</svg>

<?xml version="1.0" encoding="UTF-8"?>
<svg xmlns="http://www.w3.org/2000/svg" xmlns:xlink="http://www.w3.org/1999/xlink" width="71pt" height="44pt" viewBox="0 0 71 44" version="1.1">
<g id="surface1">
<path style=" stroke:none;fill-rule:nonzero;fill:rgb(13.729858%,12.159729%,12.548828%);fill-opacity:1;" d="M 0.0859375 43.46875 L 0.0859375 0.949219 L 70.953125 0.949219 L 70.953125 43.46875 L 0.0859375 43.46875 M 1.5 42.050781 L 69.535156 42.050781 L 69.535156 2.363281 L 1.5 2.363281 L 1.5 42.050781 "/>
<path style=" stroke:none;fill-rule:nonzero;fill:rgb(13.729858%,12.159729%,12.548828%);fill-opacity:1;" d="M 7.277344 34.230469 L 20.820312 34.230469 L 20.820312 31.070312 L 11.507812 31.070312 L 12.433594 30.078125 C 13.535156 28.867188 14.601562 27.625 15.59375 26.34375 C 16.554688 25.101562 17.410156 23.820312 18.15625 22.578125 C 18.898438 21.332031 19.46875 20.125 19.894531 18.917969 C 20.320312 17.742188 20.535156 16.609375 20.535156 15.542969 C 20.535156 14.652344 20.394531 13.835938 20.144531 13.054688 C 19.859375 12.269531 19.433594 11.597656 18.898438 10.992188 C 18.332031 10.421875 17.621094 9.964844 16.804688 9.605469 C 15.953125 9.285156 14.953125 9.109375 13.820312 9.109375 C 12.648438 9.109375 11.542969 9.25 10.582031 9.5 C 9.589844 9.78125 8.664062 10.140625 7.847656 10.566406 L 8.238281 14.191406 C 8.808594 13.726562 9.519531 13.269531 10.335938 12.875 C 11.152344 12.488281 12.078125 12.269531 13.105469 12.269531 C 14.210938 12.269531 15.097656 12.628906 15.703125 13.371094 C 16.308594 14.121094 16.625 15.042969 16.625 16.214844 C 16.625 17.035156 16.449219 17.921875 16.09375 18.878906 C 15.703125 19.839844 15.207031 20.871094 14.53125 21.902344 C 13.851562 22.964844 13.070312 24.066406 12.183594 25.242188 C 11.261719 26.414062 10.265625 27.625 9.164062 28.867188 L 7.277344 31.035156 L 7.277344 34.230469 M 24.808594 25.882812 L 31.449219 25.882812 L 31.449219 13.269531 L 31.382812 13.269531 L 24.808594 25.882812 M 21.855469 28.832031 L 31.449219 28.832031 L 31.449219 34.230469 L 35.007812 34.230469 L 35.007812 28.832031 L 37.738281 28.832031 L 37.738281 25.882812 L 35.007812 25.882812 L 35.007812 9.429688 L 30.597656 9.429688 L 21.855469 25.277344 L 21.855469 28.832031 M 41.582031 34.230469 L 45.417969 34.230469 L 45.417969 29.933594 L 41.582031 29.933594 L 41.582031 34.230469 M 49.722656 33.523438 C 50.398438 33.769531 51.179688 34.019531 52.105469 34.199219 C 52.992188 34.40625 53.988281 34.511719 55.019531 34.511719 C 57.652344 34.511719 59.671875 33.734375 61.09375 32.207031 C 62.519531 30.675781 63.226562 28.582031 63.226562 25.917969 C 63.226562 24.671875 63.050781 23.605469 62.695312 22.648438 C 62.304688 21.722656 61.804688 20.945312 61.203125 20.300781 C 60.597656 19.664062 59.851562 19.164062 59.035156 18.84375 C 58.183594 18.527344 57.292969 18.382812 56.367188 18.382812 C 55.800781 18.382812 55.265625 18.417969 54.804688 18.457031 C 54.308594 18.527344 53.882812 18.632812 53.558594 18.738281 L 53.558594 12.449219 L 62.054688 12.449219 L 62.054688 9.429688 L 50.078125 9.429688 L 50.078125 22.082031 C 50.683594 21.902344 51.324219 21.722656 51.960938 21.546875 C 52.601562 21.367188 53.347656 21.300781 54.164062 21.300781 C 55.871094 21.300781 57.148438 21.761719 58.039062 22.648438 C 58.894531 23.535156 59.316406 24.746094 59.316406 26.203125 C 59.316406 27.730469 58.894531 28.972656 58.003906 29.933594 C 57.113281 30.929688 55.90625 31.425781 54.378906 31.425781 C 53.492188 31.425781 52.675781 31.28125 51.925781 31.035156 C 51.179688 30.785156 50.507812 30.5 49.9375 30.179688 L 49.722656 33.523438 "/>
</g>
</svg>
